X: 22941
T: Larry The Beer Drinker
R: jig
M: 6/8
K: Dmajor
|:F/E/|DEF {G/}FEF|AFF F2 E|DEF {G/}FEF|AFE E2 F|
DEF {G/}FEF|AFA d2 d|cBA BAF|AFE E2:|
|:f|ecA ABA|ecA A2 f|ecA Ace|fdB B2 f|
ecA fdB|ecA agf|ecA BAF|AFE E2:|
|:d|dAA {G/}FEF|AFF F2 d|dFF {G/}FEF|AFE E2 d|
dAA {G/}FEF|AFA d2 d|cBA BAF|AFE E2:|

